X:1
T:Ninna nanna (1912)
T:Ninna nanna (1912)
T:Francesco Paolo Tosti
T:Gabriele D'Annunzio 
T: A la carissima amica Signora Annunziata Michetti 
T:Public Domain - https://imslp.org/wiki/Ninna_nanna_(Tosti,_Francesco_Paolo)
T:Public Domain - https://imslp.org/wiki/Ninna_nanna_(Tosti,_Francesco_Paolo)
T:Public Domain - https://imslp.org/wiki/Ninna_nanna_(Tosti,_Francesco_Paolo)
T:Public Domain - https://imslp.org/wiki/Ninna_nanna_(Tosti,_Francesco_Paolo)
C:Francesco Paolo Tosti
Z:Gabriele D'Annunzio
Z:Public Domain - https://imslp.org/wiki/Ninna_nanna_(Tosti,_Francesco_Paolo)
%%score 1 { ( 2 5 ) | ( 3 4 ) }
L:1/8
Q:3/8=60
M:6/8
K:G
V:1 treble nm="Alto"
V:2 treble nm="Piano"
V:5 treble 
V:3 bass 
V:4 bass 
V:1
"^\n\n" z6 | z6 | z6 | z6 | z6 | z6 | z6 | z6 |"^Canto" z6 | z2 z!<(! !tenuto!d2 B | %10
w: |||||||||Nin\- na|
 !tenuto!B2 A!<)! !tenuto!d2 B | !tenuto!B2 A z G G |!>(! !tenuto!A2 A !tenuto!A A!>)! B | %13
w: nan\- na, mio fi\-|gliuo\- lo! Nin\- na|nan\- na, oc\- chi ri\-|
 G3 G2 z | z2 z d2!<(! B | B2 ^A d2 A!<)! | ^c2 B- !breath!B F G | A2!<(! B A2 F!<)! | %18
w: den\- ti!|Can\- ta,|can\- ta, ru\- si\-|gno\- lo, _ cheil mio|bim\- bo s'ad\- dor\-|
!>(! D2 D!>)!"^come parlato" z2 D/ D/ | D2 D z D D | %20
w: men\- ti! fres\- che|ro\- se, gi\- gliau\-|
 D2 D-"^poco rit. ................,   lento" D D D | D2 D D D D | D2 D- D z z | z6 | z6 | z6 | z6 | %27
w: len\- ti _ ne la|cul\- la èil mio fi\-|gliuo\- lo _|||||
 z6 | z6 | z6 | z2 z!<(! !tenuto!d2 B | !tenuto!B2 A!<)! z !tenuto!d B | %32
w: |||Nin\- na|nan\- na! Le len\-|
 !tenuto!B2 A!>(! !tenuto!G2 G | A2 A!>)! !tenuto!A2 B | G3 G2 z | z2 z!<(! !tenuto!d2 B | %36
w: zuo\- la son tes\-|su\- te di con\-|ten\- to.|O\- ro|
 B2 ^A !tenuto!d !tenuto!d A!<)! | ^c2 B- B F G | A2 B A!>(! A F | %39
w: fi\- no e\- ra la|spo\- la _ ed i|lic\- ci e\- ra\- noar|
 D2 D-!>)!"^come parlato" D z D/ D/ | D2 D- D/ z/ z/ D/ D/ D/ | D3/2 D/ D/ D/ D2 D- | %42
w: gen\- to; _ e pa\-|re\- va _ un' i\- stru\-|men\- to quel te\- la\- jo,|
"^rit. ----------------------a tempo" D z z !tenuto!D !tenuto!D !tenuto!D | D2 D- D z z | z6 | z6 | %46
w: _ u\- na vi\-|o\- la! _|||
 z6 | z6 | z6 | z6 | z6 | z2"^con anima" z!<(! !tenuto!d2 B | B2!<)! A z !tenuto!d!<(! B | %53
w: |||||Be\- ne\-|det\- to! Non c'è|
 B2 A-!<)! A G G | A2 A z!<(! A B | G3!<)! G2 z | z2 z"^cresc." !tenuto!d2 B | B2 ^A z/ d/ d A | %58
w: duo\- lo _ pel mio|bim\- bo, non tor\-|men\- to:|Nin\- na|nan\- na! Il suo len\-|
 ^c2 B- B F G | A2 B A2 F |!>(! D2 D!>)! z2!p! D/ D/ | D2 D z3/2!p! D/ D/ D/ | D2 D"^dim." z D D | %63
w: zuo\- lo _ è tes\-|su\- to di con\-|ten\- to. Nin\- na|nan\- na! Il lu\- meè|spen\- to, ma ri\-|
 D2 !breath!D"^rit. ................,  a tempo" D D D | D2 D- D z z | z2!p! D/ D/ D2 D- | %66
w: lu\- ce il mio fi\-|gliuo\- lo _|Nin\- na nan\- na,|
 D z z z2 z | z2 D/ D/ D2 D- | D z z z2 z | z6 | z2 z z2!pp! D/ D/ | D3 D3- | D z z z2 z | z6 | %74
w: _|Nin\- na nan\- na,|_||Nin\- na|nan\- na|_||
 !fermata!z6 |] %75
w: |
V:2
"^come con sordina" z6 | z2 z!p!!p! (!^![gb]2 [eg] | [fa] [df]2 [fa] [df]2-) | %3
 [df]3 (!tenuto![eg]2 [ce] | [GB]6- | [GB]2) z!p! (!^![=Fd]2 [DB] | %6
 !^![E^c] [^CA]2 !^![Ec] [CA-]2 |!>(! A2 F d2 [DB]!>)! | [B,G]6-) | [B,G] z z!<(! (!tenuto!d2 B | %10
 !tenuto!B2!<)! A !tenuto!d2 B | !tenuto!B2 A) (!tenuto!G3 |!>(! !tenuto!A3- A2!>)! B | %13
 G3- G) z z | z2 z !tenuto!d2!<(! B | B2 ^A !tenuto!d2 A!<)! | !tenuto!^c2 B- B3 | %17
 (A2!<(! B [^CFA]2 [A,CF]!<)! |!>(![I:staff +1] D2)[I:staff -1] z!>)!!<(! (!tenuto![DFA]3!<)! | %19
 [DGd]3!<(! [DFc]3!<)! | [D=FB]3)"^poco rit. ................,   lento" (!^![_B,D_B]3- | %21
 [B,DB]3!<(! [C^F^A]3!<)! | [=B,G=B]2) z!p! (!>![gb]2 [eg] | [fa] [df]2 [fa] [df]2- | %24
 [df]3) ([ea]2 [ce] | [GB]6-) | [GB]2 z!p! (!tenuto![=Fd]2 [DB] | %27
 !tenuto![E^c] [^CA]2 !tenuto![Ec] [CA-]2 |!>(! A2 F !tenuto!d2 [DB]!>)! | G6- | G) z z!<(! (z2 B | %31
 !tenuto!B2!<)! A !tenuto!d2 B | !tenuto!B2 A)!>(! !>![B,DG]3 | [^CGA]3!>)! A2 B | G3- G z z | %35
 z2 z (!tenuto!d2!<(! B | B2 ^A) (!tenuto!d2 A!<)! | !tenuto!^c2 B- B3) | %38
 (A2 z!>(! [^CFA]2 [A,CF] |[I:staff +1] D2)[I:staff -1] z!>)!!<(! (!tenuto![DEG]3 | %40
 [DF]3!<)! !tenuto![DE_B]3 | [DA]3) (!tenuto![B,D_B]3- |"^rit." [B,DB]3!<(! !^![CDF^A]3!<)! | %43
"^a tempo" [=B,G=B]2)!<(! z (!>![gb]2!<)! [eg] | [fa] [df]2 [fa] [df]2- | %45
 [df]3)!>(! (!tenuto![eg]2 [ce]!>)! | [GB]6- | [GB]2) z!p! (!>![=Fd]2 [DB] | %48
 !tenuto![E^c] [^CA]2 !tenuto![Ec] [CA-]2 | A2) (F- [Fd]2 [DB] | G6- | %51
"^cresc." G) z z (!tenuto!d2 B | B2 A !tenuto!d2 B | B2 A) (!tenuto!G3 | A3- A2!<(! B | %55
 G3-!<)! G) z z | z2 z"_cresc." (!>!d2 B | B2 ^A !tenuto!d2 A | !tenuto!^c2 B- B3) | %59
 (!tenuto!A2 B [^CFA]2 [A,CF] |[I:staff +1] D2)[I:staff -1] z !tenuto![DFA]3 | %61
 [CDF]3 (!tenuto![B,D^E]3 | [CDF]3)"_dim.""_dim." !tenuto![D=F^G]3 | %63
"^rit. ................,  a tempo" [D^FA]3 [!courtesy!=CF^A]3 | [B,GB]2 z!p! (!tenuto![gb]2 [eg] | %65
 !tenuto![fa] [df]2 !tenuto![fa] [df]2-) | [df]3 (!tenuto![eg]2 [ce] | [GB]6-) | %68
 [GB]2 z!pp! ([=Fd]2 [DB] | [E^c] [^CA]2 [Ec] [CA-]2 | A)!pp! (F- [Fd]3 [DB] | G6-) | G3!pp! D3- | %73
 D6- | !fermata!D3- D z z |] %75
V:3
 z2 (D, B,2 D,) | z2 (D, B,3) | z2 (D, !tenuto!C3) | z2 (D, !tenuto!C3) | z2 (D, B,2 D,) | %5
 z2 (D, B,3) |!p! z2 (E, A,3) | D,3 D,,3 | z2 (D, B,2 D,) | z2 (D, B,2 D,) | z2 (D, B,2 D,) | %11
 z2 (D, E,3 | C,3 D,3) | z2!<(! (D, B,2 D,)!<)! | z2 (D, B,2 D,) | z2 (F, ^A,2 F,) | z2 (F, B,3) | %17
 A,3 A,,3 | [F,A,]2 (D, !tenuto!=C2 D,) | (!tenuto!B,2 D,) (!tenuto!A,2 D,) | (^G,2 D,) !^!=G,3 | %21
 =F,3"^col canto" D,3 |"^a tempo" z2 (D, B,2 D,) | z2 (D, !tenuto!B,3) | z2 (D, !tenuto!C3) | %25
 z2 (D, B,2 D,) | z2 (D, B,3) |!p! z2 (E, A,3) | D,3 D,,3 | z2 (D, B,2 D,) | z2 (D, B,2 D,) | %31
 z2 (D, B,2 D,) | z2 D, !>!_E,3 | E,2 _E, D,3 | z2!<(! (D, B,2 D,)!<)! | z2 (D, B,2 D,) | %36
 z2 (F, ^A,2 F,) | z2 (F, B,3) | A,3 A,,3 | [F,A,]2 (D, !tenuto!_B,2 D,) | %40
 (!tenuto!B,2 D,) (!tenuto!G,2 D,) | (!tenuto!F,2 D,) !tenuto!E,3- | E,3"^col canto" D,3 | %43
 z2 (D, B,2 D,) | z2 (D, !tenuto!C3) | z2 (D, !tenuto!C3) | z2 (D, B,2 D,) | z2!p! (D, B,3) | %48
 z2 (E, A,3) | D,3 D,,3 | z2 (D, B,2 D,) | z2 (D, B,2 D,) | z2 (D, B,2 D,) | z2 D, !>!^D,3 | %54
 E,3 F,2 =D, | z2 (D, B,2 D,) | z2 (D, B,2 D,) | z2 (F, ^A,2 F,) | z2 (F, B,3) | %59
 !tenuto!A,3 !tenuto!A,,3 | [F,A,]2 (D, !tenuto!^G,2 D,) | (!tenuto!B,2 D,) (!tenuto!^G,2 D,) | %62
 (!tenuto!A,2 D,) (!tenuto!B,2 D, | C2)"^col canto" D,- D,2 D,, | z2 (D, !tenuto!C3) | %65
 z2 (D, !tenuto!C3) | z2 (D, !tenuto!C3) | z2 (D, B,2 D,) | z2 (D, B,3) | z2 (E, A,3) | D,3 D,,3 | %71
 z2 (D, B,3) |"^armonioso"!ped! z2!pp! (D, B,3-) |!ppp! B,6- | B,3- B,!ped-up! z z |] %75
V:4
 G,,6 | G,,6 | G,,6 | G,,6 | G,,6 | G,,6 | G,,6 | x6 | G,,6 | G,,6 | G,,6 | G,,3 E,3 | x6 | G,,6 | %14
 G,,6 | ^C,6 | B,,6 | x6 | D,,2 x4 | x6 | x6 | x6 | G,,6 | G,,6 | G,,6 | G,,6 | G,,6 | G,,6 | x6 | %29
 G,,6 | G,,6 | G,,6 | G,,3 _E,3 | x6 | G,,6 | G,,6 | ^C,6 | B,,6 | x6 | D,,2 x4 | x6 | x6 | x6 | %43
 G,,6 | G,,6 | G,,6 | G,,6 | G,,6 | G,,6 | x6 | G,,6 | G,,6 | G,,6 | G,,3 ^D,3 | x6 | G,,6 | G,,6 | %57
 ^C,6 | B,,6 | x6 | D,,2 x4 | x6 | x6 | x6 | G,,6 | G,,6 | G,,6 | G,,6 | G,,6 | G,,6 | x6 | G,,6 | %72
 G,,6- | G,,6 | !fermata!G,,,3- G,,, z z |] %75
V:5
 x6 | x6 | x6 | x6 | x6 | x6 | x6 | =C6 | x6 | x3 [DG]3 | [CF]3 [DG]3 | [CF]3 B,3 | [A,E]3 [CF]3 | %13
 B,3- B, z z | x3 [DG]3 | [EF]6 | [DF]6 | [DF]3 x3 | x6 | x6 | x6 | x6 | x6 | x6 | x6 | x6 | x6 | %27
 x6 | =C6 | B,6- | B, x2 [DG]3 | [CF]3 [DG]3 | [CF]3 x3 | x3 [=CF]3 | B,3- B, z z | x3 [DG]3 | %36
 [EF]6 | [DF]6 | [DF]3 x3 | x6 | x6 | x6 | x6 | x6 | x6 | x6 | x6 | x6 | x6 | =C6 | B,6- | %51
 B, z z [DG]3 | [CF]3 [DG]3 | [CF]3 B,3 | [CG]3 [CD]3 | B,3 B, z z | x3 [DG]3 | [EF]6 | [DF]6 | %59
 [DF]3 x3 | x6 | x6 | x6 | x6 | x6 | x6 | x6 | x6 | x6 | x6 | =C6 | C2 z z2 z | x6 | x6 | x6 |] %75

